public/assets/standards/soft/feature-bg.svg

<svg viewBox="0 0 62 62" xmlns="http://www.w3.org/2000/svg">
    <path opacity="0.2"
        d="M41.0289 2.01185C38.3879 0.905801 35.5689 0.285623 32.7076 0.181152C28.911 0.201956 25.1976 1.7414 21.6922 3.35366C15.2431 6.29734 10.1879 10.9053 4.86227 15.5964C0.58718 19.4243 -0.120134 27.2567 0.0150876 32.5928C0.0150876 33.2377 0.0150881 33.893 0.0774982 34.5379C0.113234 36.5258 0.464326 38.4954 1.11767 40.3732C2.19944 43.3481 4.78946 45.8653 6.75538 48.3097C8.72503 50.9336 11.1108 53.2175 13.8181 55.0708C17.053 57.2239 21.6818 60.9061 25.6656 61.239C30.7 61.6655 34.5383 61.8735 39.375 60.3653C44.5135 58.7634 50.1512 56.423 53.875 52.3248C55.8201 50.1716 57.0891 47.1239 58.5349 44.5963C61.363 39.8635 62.5102 34.3144 61.7907 28.8482C61.0313 22.9816 58.7326 18.4465 56.2986 13.2457C53.1573 6.49497 47.634 4.49785 41.0289 2.01185Z"
        fill="#AECC53" />
</svg>

<svg xmlns="http://www.w3.org/2000/svg" viewBox="0 0 62 62"><path fill="#aecc53" d="M41.029 2.012a23.8 23.8 0 0 0-8.321-1.83c-3.797.02-7.51 1.56-11.016 3.172-6.449 2.943-11.504 7.551-16.83 12.242C.587 19.424-.12 27.256.015 32.593c0 .645 0 1.3.062 1.945a18.8 18.8 0 0 0 1.04 5.835C2.2 43.348 4.79 45.865 6.756 48.31a30 30 0 0 0 7.063 6.76c3.235 2.154 7.864 5.836 11.848 6.169 5.034.427 8.872.635 13.709-.874 5.139-1.602 10.776-3.942 14.5-8.04 1.945-2.153 3.214-5.201 4.66-7.729a24.47 24.47 0 0 0 3.256-15.748c-.76-5.866-3.058-10.401-5.492-15.602-3.142-6.751-8.665-8.748-15.27-11.234" opacity=".2"/></svg>
